X:14237
T:Reverend Brother's
M:6/8
L:1/8
K:A Dorian
B|ABA cBc|dcd ecA|ABA cde|dcA GEG|!
ABA cBc|dcd ecA|a3 ged|cAA A2:|!
d|eaa aba|gef gfg|eaa aba|ged cAA|!
eaa aba|gef gfg|a3 ged|cAA A2:|!

